local/share/icons/dracula-icons-main/16/places/folders-music.svg

<?xml version="1.0" encoding="UTF-8"?>
<svg xmlns="http://www.w3.org/2000/svg" xmlns:xlink="http://www.w3.org/1999/xlink" width="16" height="16" viewBox="0 0 16 16">
<path fill-rule="nonzero" fill="rgb(100%, 100%, 100%)" fill-opacity="1" d="M 7 1 C 5.890625 1 5 1.890625 5 3 L 5 9.179688 C 4.679688 9.066406 4.34375 9 4 9 C 2.34375 9 1 10.34375 1 12 C 1 13.65625 2.34375 15 4 15 C 5.65625 15 7 13.65625 7 12 L 7 3 L 13 3 L 13 9.179688 C 12.679688 9.066406 12.34375 9 12 9 C 10.34375 9 9 10.34375 9 12 C 9 13.65625 10.34375 15 12 15 C 13.65625 15 15 13.65625 15 12 L 15 3 C 15 1.890625 14.109375 1 13 1 Z M 4 11 C 4.550781 11 5 11.449219 5 12 C 5 12.550781 4.550781 13 4 13 C 3.449219 13 3 12.550781 3 12 C 3 11.449219 3.449219 11 4 11 Z M 12 11 C 12.550781 11 13 11.449219 13 12 C 13 12.550781 12.550781 13 12 13 C 11.449219 13 11 12.550781 11 12 C 11 11.449219 11.449219 11 12 11 Z M 12 11 "/>
</svg>

<svg width="16" height="16" version="1.1" viewBox="0 0 16 16" xmlns="http://www.w3.org/2000/svg">
 <defs>
  <style id="current-color-scheme" type="text/css">.ColorScheme-Text { color:#FFFFFF; } .ColorScheme-Highlight { color:#5294e2; }</style>
 </defs>
 <path style="fill:currentColor" class="ColorScheme-Text" d="m7 1c-1.108 0-2 0.892-2 2v6.1797c-0.31917-0.11396-0.65543-0.17897-1-0.17969-1.6569 0-3 1.3431-3 3s1.3431 3 3 3 3-1.3431 3-3v-9h6v6.1797c-0.31917-0.11396-0.65543-0.17897-1-0.17969-1.6569 0-3 1.3431-3 3s1.3431 3 3 3 3-1.3431 3-3v-9c0-1.108-0.892-2-2-2zm-3 10c0.55228 0 1 0.44772 1 1s-0.44772 1-1 1-1-0.44772-1-1 0.44772-1 1-1zm8 0c0.55228 0 1 0.44772 1 1s-0.44772 1-1 1-1-0.44772-1-1 0.44772-1 1-1z"/>
</svg>
